X:88
T:St. Georges Fields
M:6/8
L:1/8
B:Thompson's Compleat Collection of 200 Favourite Country Dances, vol. 3 (London, 1773)
Z:Transcribed and edited by Flynn Titford-Mock, 2007
Z:abc's:AK/Fiddler's Companion
K:G
BAB G2d | d2e d3 | cdc B2B | ABA G2D | BAB G2d | d2e d3 | gag f2f | efe d3 :|
|: d2d ded | c2B c2A | c2c Bcd | c2B A3 | d2d e2e | fga g2G | cdc B2B | ABA G3 :|
K:Gmin
|: BAG d2e | d2c B2A | BAG ^F2G | c2B A3 | BAB c2e | d2c B2F | fed gfe | d2c B3 :|
|: dcd e2d | c2d B2A | Bcd c2B | A2G ^F3 | gab a2g | ^fga g3 | dcd edc | B2A G3 :|

